X:1
T:Thine for Service
T:Lydia Shivers Leech, 1915
T:Thine for Service
T:Public Domain
T:Public Domain
C:Lydia Shivers Leech, 1915
Z:Public Domain
%%score ( 1 2 ) ( 3 4 )
L:1/8
M:4/4
K:G
V:1 treble 
V:2 treble 
V:3 bass 
V:4 bass 
V:1
 [B,D][B,D] | [B,G]2 [B,G]2 [B,G][DB][B,G][B,D] | [CE]2 [CG]2 [B,D]2 [DG]>[DA] | %3
w: 1.~I have|made my choice to fol- low|Christ each day, I am|
w: 2.~Let me|i- dle not the pre- cious|hours a- way, I am|
w: 3.~I will|ne- ver ask Thee “How,” or|“Where” or “Why?” For I’ve|
w: 4.~I am|Thine for ser- vice till the|last glad hour Shall have|
 [GB]3 [Gd] [Gd]2 [GB]2 | [FA]6 [CD][CD] | [B,G]2 [B,G]2 [B,G][DB][B,G][B,D] | %6
w: Thine for ser- vice,|Lord; Tho’ I|some- times fal- ter on the|
w: Thine for ser- vice,|Lord; As Thy|voice shall bid me, I will|
w: cast my lot with|Thee Till the|glo- ry gates shall o- pen|
w: passed on earth from|me; And I|wake to ser- vice of a|
 [CE]2 [CG]2 [B,D]2 [DG]>[DA] | [GB]3 [Gd] [GB]2 [FA]2 | [DG]6 z2 || %9
w: thorn- y way, I am|Thine for ser- vice,|Lord.|
w: go or stay, I am|Thine for ser- vice,|Lord.|
w: by and by, With a|“Wel- come home” for|me.|
w: great- er power, Thro’ a|glad e- ter- ni-|ty.|
"^Refrain" [Gd]3 [Gd] [Ge][Gd][GB][Gd] | [Fc]2 [Ec]2 [Dc]4 | [Fc]3 [Fc] [Fd][Fc][FA][Fc] | %12
w: |||
w: |||
w: |||
w: |||
 [GB]2 [GB]2 [GB]2 [Gd]2 | [Gd]3 [Gd] [Ge][Gd][GB]G | [EA]2 [EB]2 [Ec]2 [EG]>[CE] | %15
w: |||
w: |||
w: |||
w: |||
 [B,D]3 [DB] [DB]2 [CA]2 | [B,G]6 |] %17
w: ||
w: ||
w: ||
w: ||
V:2
 x2 | x8 | x8 | x8 | x8 | x8 | x8 | x8 | x8 || x8 | x8 | x8 | x8 | x7 G | x8 | x8 | x6 |] %17
V:3
 [G,,G,][G,,G,] | [G,,D,]2 [G,,D,]2 [G,,D,][G,,G,][G,,G,][G,,G,] | %2
w: ~ ~|~ ~ ~ ~ ~ ~|
 [C,G,]2 [E,G,]2 G,2 [G,B,]>[G,C] | [G,D]3 [G,B,] [G,B,]2 [G,D]2 | [D,D]6 [D,F,][D,F,] | %5
w: ~ ~ ~ ~ ~|~ ~ ~ ~|~ ~ ~|
 [G,,D,]2 [G,,D,]2 [G,,D,][G,,G,][G,,G,][G,,G,] | [C,G,]2 [E,G,]2 G,2 [G,B,]>[G,C] | %7
w: ~ ~ ~ ~ ~ ~|~ ~ ~ ~ ~|
 [G,D]3 [G,B,] [D,D]2 [D,C]2 | [G,B,]6 z2 || [G,B,]3 [G,B,] [G,C][G,B,][G,D][G,B,] | %10
w: ~ ~ ~ Thine|for|ser- vice when the days are|
 [D,A,]2 [D,G,]2 [D,F,]4 | [D,A,]3 [D,A,] [D,A,][D,A,][D,D][D,D] | [G,D]2 [G,D]2 [G,D]2 [G,B,]2 | %13
w: drear, Thine for|ser- vice when the skies are|clear; Yes, Thine for|
 [G,B,]3 [G,B,] [G,C][G,B,][G,D][G,B,] | [C,A,]2 [B,,^G,]2 [A,,A,]2 [C,=G,]>[C,G,] | %15
w: ser- vice thro’ the com- ing|years, I am Thine for|
 [D,G,]3 [D,G,] [D,G,]2 [D,F,]2 | [G,,G,]6 |] %17
w: ser- vice, Lord. *||
V:4
 x2 | x8 | x4 G,2 x2 | x8 | x8 | x8 | x4 G,2 x2 | x8 | x8 || x8 | x8 | x8 | x8 | x8 | x8 | x8 | %16
w: ||~||||~||||||||||
 x6 |] %17
w: |

